X: 1
T: The Silver Spire
R: reel
M: 4/4
L: 1/8
K: Dmaj
|:FE|D2FE DFAc|dcdf edAF|GABG FGAF|GFED DEFE|
D2FE DFAc|d2df edAF|G2BG F2AF|EADE D2:|
|:FE|AD3 EFGE|GFEF GABc|dcBA Bcde|f2gf e2 (3ABc|
d2fd c2ec|dcdA BAFD|G2BG F2AF|EADE D2:|


